X: 1033
T: Niel Gows Lamentation for Abercarney
%R: air, strathspey
B: Niel Gow & Sons "A Collection of Strathspey Reels, etc." v.1 p.3 #3
Z: 2022 John Chambers <jc:trillian.mit.edu>
M: C|
L: 1/8
Q: "Slow"
K: G
% = = = = = = = = = =
V: 1 staves=2
B, |\
G,>B,DG EG[DG,]G | A>B c/B/A/G/ E2-EG |\
G,>B,DG EG[DG,]g/e/ | dG d/c/B/A/ G2G :| e |\
de/f/ gd edgB | Tca/c/ TBg/B/ A2A>B |
G,>B,DG EG[DG,]g/e/ | dG d/c/B/A/ G2G>e ||\
Tde/f/ gd edgB | (Tc/B/c/).a/ (TB/A/B/).g/ A2 AB/c/ |\
{e}dc/B/ {d}cB/A/ {c}BA/G/ {B}AG/F/ | {A}GF/E/ D/E/D/B,/ G,2G, |]
% = = = = = = = = = =
% Voice 2 preserves the staff layout in the book.
V: 2 clef=bass middle=d
z | G2G2 G2G2 | G2G2 c2c2 | G2G2 G2G2 | d2D2 G2G :| z | g2g2 g2g2 |a2g2 d2d2 |
G2G2 G2G2 | d2D2 G2G2 || g2g2 g2g2 | a2g2 d2d2 | g2d2 e2B2 | c2d2 G2G |]
